icons/joomla-light.svg

<svg width="256" height="256" viewBox="0 0 256 256" fill="none" xmlns="http://www.w3.org/2000/svg">
<rect width="256" height="256" rx="60" fill="#F4F2ED" />
<path d="M212.753 65.6111C212.753 53.2568 202.738 43.2416 190.383 43.2416C179.103 43.2416 169.777 51.5929 168.241 62.4493L168.015 62.3298C149.72 54.0787 134.311 68.6932 134.311 68.6932L93.5493 109.654L109.655 125.164L142.463 92.9317C157.784 77.6108 166.126 87.9806 166.126 87.9806C177.659 97.7235 166.523 109.257 166.523 109.257L183.027 125.164C196.504 110.608 197.285 97.9048 193.189 87.7993C204.218 86.4183 212.753 77.0146 212.753 65.6111Z" fill="#F9AE41"/>
<path d="M193.396 168.489C193.473 168.346 193.516 168.263 193.516 168.263C201.768 149.969 187.153 134.559 187.153 134.559L146.191 93.7963L130.681 109.903L162.914 142.711C178.234 158.032 167.864 166.374 167.864 166.374C158.122 177.907 146.589 166.772 146.589 166.772L130.681 183.275C145.237 196.752 157.941 197.533 168.046 193.437C169.427 204.467 178.831 213.002 190.235 213.002C202.589 213.002 212.603 202.987 212.603 190.632C212.603 179.352 204.253 170.026 193.396 168.489Z" fill="#EE4035"/>
<path d="M146.539 130.333L113.731 162.565C98.4102 177.887 90.0682 167.518 90.0682 167.518C78.5352 157.774 89.6705 146.242 89.6705 146.242L73.1677 130.333C59.6906 144.889 58.9085 157.592 63.0045 167.698C51.9748 169.079 43.4402 178.482 43.4402 189.887C43.4402 202.241 53.4554 212.256 65.8104 212.256C77.0911 212.256 86.4164 203.906 87.9528 193.049C88.0962 193.125 88.1792 193.168 88.1792 193.168C106.474 201.421 121.883 186.805 121.883 186.805L162.645 145.843L146.539 130.333Z" fill="#4F91CD"/>
<path d="M93.2798 112.787C77.9589 97.4659 88.3273 89.1233 88.3273 89.1233C98.0716 77.5903 109.604 88.7262 109.604 88.7262L125.512 72.2235C110.956 58.7464 98.2528 57.9649 88.1474 62.0609C86.7663 51.0305 77.3633 42.496 65.9578 42.496C53.6054 42.496 43.5909 52.5112 43.5896 64.8655C43.5896 76.1468 51.9402 85.4722 62.7973 87.0086C62.721 87.152 62.6785 87.2356 62.6785 87.2356C54.4254 105.529 69.0412 120.938 69.0412 120.938L110.004 161.701L125.513 145.595L93.2798 112.787Z" fill="#7AC043"/>
</svg>

<svg xmlns="http://www.w3.org/2000/svg" width="256" height="256" fill="none"><rect width="256" height="256" fill="#F4F2ED" rx="60"/><path fill="#F9AE41" d="M212.753 65.611c0-12.354-10.015-22.37-22.37-22.37-11.28 0-20.606 8.352-22.142 19.208l-.226-.12c-18.295-8.25-33.704 6.364-33.704 6.364l-40.762 40.961 16.106 15.51 32.808-32.232c15.321-15.321 23.663-4.951 23.663-4.951 11.533 9.743.397 21.276.397 21.276l16.504 15.907c13.477-14.556 14.258-27.26 10.162-37.365 11.029-1.38 19.564-10.784 19.564-22.188"/><path fill="#EE4035" d="m193.396 168.489.12-.226c8.252-18.294-6.363-33.704-6.363-33.704l-40.962-40.763-15.51 16.107 32.233 32.808c15.32 15.321 4.95 23.663 4.95 23.663-9.742 11.533-21.275.398-21.275.398l-15.908 16.503c14.556 13.477 27.26 14.258 37.365 10.162 1.381 11.03 10.785 19.565 22.189 19.565 12.354 0 22.368-10.015 22.368-22.37 0-11.28-8.35-20.606-19.207-22.143"/><path fill="#4F91CD" d="m146.539 130.333-32.808 32.232c-15.32 15.322-23.663 4.953-23.663 4.953-11.533-9.744-.397-21.276-.397-21.276l-16.503-15.909c-13.477 14.556-14.26 27.259-10.164 37.365-11.03 1.381-19.564 10.784-19.564 22.189 0 12.354 10.015 22.369 22.37 22.369 11.281 0 20.606-8.35 22.143-19.207l.226.119c18.295 8.253 33.704-6.363 33.704-6.363l40.762-40.962z"/><path fill="#7AC043" d="M93.28 112.787c-15.321-15.321-4.953-23.664-4.953-23.664 9.745-11.533 21.277-.397 21.277-.397l15.908-16.502c-14.556-13.478-27.26-14.26-37.365-10.163-1.38-11.03-10.784-19.565-22.19-19.565-12.352 0-22.366 10.015-22.367 22.37 0 11.28 8.35 20.606 19.207 22.143l-.118.227c-8.254 18.293 6.362 33.702 6.362 33.702l40.963 40.763 15.509-16.106z"/></svg>
